X: 1
T: Crucaharan Cross, The
M: 2/4
L: 1/8
R: polka
K: Gmaj
B/A/|Gd Bd|G>A Ge|dB B/A/G/A/|BA AB/A/|
Gd Bd|G>A Ge|dB AB/A/|G2 G:|
|:d|e>d eg|G>A Ge|dB B/A/G/A/|BA AB/A/|
Gd Bd|G>A Ge|dB AB/A/|G2 G:|
